souls/img/paypal.svg

<svg width="36" height="25" viewBox="0 0 36 25" fill="none" xmlns="http://www.w3.org/2000/svg">
<g clip-path="url(#clip0_0_34)">
<path d="M11.64 12.663C11.64 13.064 11.508 13.398 11.242 13.663C11.1153 13.7928 10.9633 13.8953 10.7955 13.9641C10.6276 14.0329 10.4474 14.0666 10.266 14.063C9.96401 14.063 9.72101 13.976 9.53901 13.803C9.35701 13.628 9.26601 13.39 9.26601 13.086C9.26601 12.684 9.39601 12.346 9.65601 12.069C9.91601 11.792 10.24 11.654 10.625 11.654C10.917 11.654 11.159 11.744 11.352 11.922C11.544 12.102 11.641 12.348 11.641 12.662L11.64 12.663ZM23.906 10.238C23.906 10.693 23.792 11.003 23.563 11.165C23.333 11.328 22.99 11.41 22.531 11.41L22.031 11.426L22.297 9.684C22.317 9.564 22.385 9.505 22.5 9.505H22.781C23.011 9.505 23.193 9.516 23.328 9.538C23.4752 9.56576 23.6108 9.63639 23.718 9.741C23.844 9.855 23.906 10.021 23.906 10.238ZM29.391 12.663C29.391 13.053 29.258 13.384 28.992 13.656C28.8688 13.7864 28.7199 13.8899 28.5546 13.9598C28.3894 14.0297 28.2114 14.0645 28.032 14.062C27.729 14.062 27.484 13.976 27.297 13.802C27.109 13.629 27.016 13.39 27.016 13.086C27.016 12.684 27.146 12.346 27.406 12.069C27.666 11.792 27.99 11.654 28.375 11.654C28.667 11.654 28.909 11.744 29.102 11.922C29.294 12.102 29.391 12.348 29.391 12.662V12.663ZM8.01601 9.88C8.01601 9.24 7.81601 8.775 7.41401 8.488C7.01301 8.2 6.49001 8.057 5.84401 8.057H3.34401C3.14601 8.057 3.03601 8.16 3.01601 8.366L2.00001 15.006C1.99456 15.0376 1.99593 15.07 2.00404 15.1011C2.01214 15.1321 2.02679 15.1611 2.04701 15.186C2.06468 15.2109 2.08808 15.2311 2.11523 15.2451C2.14239 15.259 2.17249 15.2662 2.20301 15.266H3.39101C3.59901 15.266 3.71401 15.164 3.73401 14.958L4.01601 13.168C4.02368 13.0859 4.06273 13.01 4.12501 12.956C4.19174 12.8998 4.27273 12.8631 4.35901 12.85C4.45301 12.834 4.54201 12.826 4.62501 12.826C4.70801 12.826 4.80701 12.831 4.92201 12.842C5.03601 12.852 5.10901 12.858 5.14101 12.858C6.03601 12.858 6.74001 12.595 7.25001 12.068C7.76001 11.542 8.01601 10.813 8.01601 9.88ZM12.844 14.958L13.484 10.71C13.4896 10.6785 13.4884 10.6461 13.4805 10.615C13.4725 10.584 13.4581 10.555 13.438 10.53C13.4202 10.505 13.3967 10.4846 13.3693 10.4707C13.342 10.4568 13.3117 10.4497 13.281 10.45H12.094C11.948 10.45 11.859 10.628 11.828 10.986C11.547 10.552 11.052 10.336 10.344 10.336C9.59401 10.336 8.95601 10.628 8.43001 11.214C7.91238 11.7768 7.62972 12.5164 7.64001 13.281C7.64001 13.921 7.82001 14.431 8.18001 14.811C8.54001 15.191 9.02001 15.381 9.62501 15.381C9.91701 15.381 10.219 15.316 10.531 15.185C10.8183 15.0728 11.0752 14.8947 11.281 14.665C11.24 14.795 11.219 14.909 11.219 15.007C11.219 15.18 11.287 15.267 11.422 15.267H12.5C12.698 15.267 12.813 15.164 12.844 14.957V14.958ZM19.828 10.678C19.827 10.6205 19.805 10.5653 19.766 10.523C19.724 10.473 19.677 10.449 19.625 10.449H18.422C18.307 10.449 18.213 10.504 18.141 10.612L16.484 13.151L15.797 10.71C15.745 10.536 15.63 10.45 15.453 10.45H14.281C14.229 10.45 14.182 10.474 14.141 10.523C14.1019 10.5649 14.0795 10.6197 14.078 10.677C14.078 10.699 14.18 11.019 14.383 11.637L15.039 13.639C15.273 14.355 15.396 14.735 15.406 14.779C14.552 15.994 14.125 16.645 14.125 16.732C14.125 16.872 14.193 16.943 14.328 16.943H15.531C15.646 16.943 15.74 16.889 15.812 16.781L19.797 10.791C19.817 10.769 19.828 10.731 19.828 10.677V10.678ZM25.766 9.88C25.766 9.24 25.566 8.775 25.164 8.488C24.763 8.2 24.24 8.057 23.594 8.057H21.109C20.901 8.057 20.786 8.16 20.766 8.366L19.75 15.006C19.7446 15.0376 19.7459 15.07 19.754 15.1011C19.7621 15.1321 19.7768 15.1611 19.797 15.186C19.8147 15.2109 19.8381 15.2311 19.8652 15.2451C19.8924 15.259 19.9225 15.2662 19.953 15.266H21.234C21.359 15.266 21.443 15.196 21.484 15.056L21.766 13.167C21.7739 13.0853 21.813 13.0097 21.875 12.956C21.9417 12.8998 22.0227 12.8631 22.109 12.85C22.203 12.834 22.292 12.826 22.375 12.826C22.458 12.826 22.557 12.831 22.672 12.842C22.786 12.852 22.859 12.858 22.891 12.858C23.787 12.858 24.49 12.595 25 12.068C25.51 11.542 25.766 10.813 25.766 9.88ZM30.594 14.958L31.234 10.71C31.2395 10.6784 31.2381 10.646 31.23 10.6149C31.2219 10.5839 31.2072 10.5549 31.187 10.53C31.1693 10.5051 31.1459 10.4849 31.1188 10.4709C31.0916 10.457 31.0615 10.4498 31.031 10.45H29.844C29.698 10.45 29.609 10.628 29.578 10.986C29.308 10.552 28.813 10.336 28.094 10.336C27.344 10.336 26.706 10.628 26.18 11.214C25.6624 11.7768 25.3797 12.5164 25.39 13.281C25.39 13.921 25.57 14.431 25.93 14.811C26.29 15.191 26.77 15.381 27.375 15.381C27.677 15.381 27.985 15.316 28.297 15.185C28.609 15.055 28.854 14.882 29.031 14.665C29.031 14.675 29.021 14.725 29 14.811C28.9827 14.875 28.9723 14.9407 28.969 15.007C28.969 15.18 29.036 15.267 29.172 15.267H30.25C30.448 15.267 30.563 15.164 30.594 14.957V14.958ZM34 8.3V8.283C34 8.132 33.932 8.056 33.797 8.056H32.64C32.525 8.056 32.457 8.116 32.437 8.235L31.421 15.005L31.405 15.038C31.405 15.092 31.426 15.144 31.468 15.193C31.4868 15.2162 31.5106 15.2348 31.5376 15.2475C31.5646 15.2601 31.5942 15.2664 31.624 15.266H32.655C32.853 15.266 32.963 15.163 32.983 14.956L34 8.302V8.3ZM6.12501 10.48C6.07301 10.86 5.93701 11.11 5.71901 11.23C5.50001 11.349 5.18701 11.408 4.78101 11.408L4.26601 11.425L4.53101 9.683C4.55201 9.563 4.62001 9.504 4.73401 9.504H5.03101C5.44801 9.504 5.75001 9.567 5.93801 9.691C6.12501 9.816 6.18801 10.079 6.12501 10.481V10.48ZM36 2.084V22.918C36 23.482 35.802 23.97 35.406 24.382C35.01 24.795 34.542 25.001 34 25.001H2.00001C1.45801 25.001 0.99001 24.795 0.59401 24.382C0.402813 24.1896 0.251823 23.9611 0.149842 23.7097C0.0478608 23.4584 -0.00307276 23.1892 9.94637e-06 22.918V2.083C9.94637e-06 1.52 0.19801 1.031 0.59401 0.618C0.99001 0.206 1.45801 0 2.00001 0H34C34.542 0 35.01 0.206 35.406 0.618C35.802 1.031 36 1.519 36 2.083V2.084Z" fill="black"/>
</g>
<defs>
<clipPath id="clip0_0_34">
<rect width="36" height="25" fill="white"/>
</clipPath>
</defs>
</svg>

<svg xmlns="http://www.w3.org/2000/svg" width="36" height="25" fill="none"><g clip-path="url(#a)"><path fill="#000" d="M11.64 12.663q0 .602-.398 1a1.33 1.33 0 0 1-.976.4q-.453 0-.727-.26-.273-.262-.273-.717 0-.602.39-1.017t.969-.415q.438 0 .727.268.289.27.289.74zm12.266-2.425q0 .683-.343.927-.344.245-1.032.245l-.5.016.266-1.742q.03-.18.203-.179h.281q.345 0 .547.033a.76.76 0 0 1 .39.203q.189.171.188.497m5.485 2.425q0 .585-.399.993a1.3 1.3 0 0 1-.96.406q-.454 0-.735-.26-.282-.26-.281-.716 0-.602.39-1.017t.969-.415q.438 0 .727.268.288.27.289.74zM8.016 9.88q0-.96-.602-1.392-.601-.431-1.57-.431h-2.5q-.298 0-.328.309L2 15.006a.23.23 0 0 0 .047.18.19.19 0 0 0 .156.08h1.188q.313 0 .343-.308l.282-1.79a.32.32 0 0 1 .109-.212.5.5 0 0 1 .234-.106q.141-.024.266-.024t.297.016q.171.015.219.016 1.343 0 2.109-.79.765-.789.766-2.188m4.828 5.078.64-4.248a.23.23 0 0 0-.046-.18.19.19 0 0 0-.157-.08h-1.187q-.22 0-.266.536-.422-.65-1.484-.65-1.125 0-1.914.878a3 3 0 0 0-.79 2.067q0 .96.54 1.53.539.57 1.445.57.438 0 .906-.196c.287-.112.544-.29.75-.52q-.062.195-.062.342 0 .26.203.26H12.5q.297 0 .344-.31zm6.984-4.28a.24.24 0 0 0-.062-.155q-.063-.075-.141-.074h-1.203q-.173 0-.281.163l-1.657 2.539-.687-2.441q-.078-.26-.344-.26h-1.172q-.078 0-.14.073a.24.24 0 0 0-.063.154q0 .033.305.96l.656 2.002q.351 1.074.367 1.14-1.281 1.823-1.281 1.953 0 .21.203.211h1.203q.173 0 .281-.162l3.985-5.99q.03-.033.031-.114zm5.938-.798q0-.96-.602-1.392-.601-.431-1.57-.431h-2.485q-.312 0-.343.309l-1.016 6.64a.23.23 0 0 0 .047.18.19.19 0 0 0 .156.08h1.281q.188 0 .25-.21l.282-1.889a.32.32 0 0 1 .109-.211.5.5 0 0 1 .234-.106q.141-.024.266-.024.124 0 .297.016.171.015.219.016 1.344 0 2.109-.79.766-.789.766-2.188m4.828 5.078.64-4.248a.22.22 0 0 0-.047-.18.19.19 0 0 0-.156-.08h-1.187q-.22 0-.266.536-.405-.65-1.484-.65-1.125 0-1.914.878a3 3 0 0 0-.79 2.067q0 .96.54 1.53.539.57 1.445.57.454 0 .922-.196.468-.195.734-.52 0 .016-.031.146a1 1 0 0 0-.031.196q0 .26.203.26h1.078q.297 0 .344-.31zM34 8.3v-.017q0-.227-.203-.227H32.64q-.173 0-.203.179l-1.016 6.77-.016.033q0 .081.063.155a.2.2 0 0 0 .156.073h1.031q.297 0 .328-.31L34 8.302zM6.125 10.48q-.079.57-.406.75-.329.178-.938.178l-.515.017.265-1.742q.032-.18.203-.179h.297q.625 0 .907.187.281.187.187.79zM36 2.084v20.834q0 .846-.594 1.464-.593.62-1.406.619H2q-.813 0-1.406-.619A2.04 2.04 0 0 1 0 22.918V2.083Q0 1.238.594.618 1.188 0 2 0h32q.813 0 1.406.618.594.62.594 1.465z"/></g><defs><clipPath id="a"><path fill="#fff" d="M0 0h36v25H0z"/></clipPath></defs></svg>
